src/Assets/Icons/General/PrimaryNavbarComponent/chatManagementIcon_selected.svg

<svg width="50" height="44" viewBox="0 0 50 44" fill="none" xmlns="http://www.w3.org/2000/svg">
<path d="M39.3488 14.1619C36.6495 5.39988 28.1044 -0.802551 18.2692 0.0843611C8.41014 0.965321 0.553301 9.12908 0.0289163 18.9982C-0.236256 24.0221 1.3369 28.6679 4.14951 32.3227V41.8555C4.14951 43.1174 5.47537 43.9478 6.61054 43.3942L13.1743 40.1978H35.8778C43.0523 40.1978 49.3628 34.3495 49.4552 27.1828C49.5445 20.8792 45.2094 15.5696 39.3488 14.1619ZM16.4815 26.7453C15.108 26.7453 13.9966 25.6322 13.9966 24.2631C13.9966 22.8941 15.105 21.781 16.4815 21.781C17.858 21.781 18.9664 22.8881 18.9664 24.2631C18.9664 25.6381 17.852 26.7453 16.4815 26.7453ZM24.7286 26.7453C23.3581 26.7453 22.2438 25.6322 22.2438 24.2631C22.2438 22.8941 23.3581 21.781 24.7286 21.781C26.0992 21.781 27.2135 22.8881 27.2135 24.2631C27.2135 25.6381 26.1051 26.7453 24.7286 26.7453ZM32.9788 26.7453C31.6052 26.7453 30.4939 25.6322 30.4939 24.2631C30.4939 22.8941 31.6022 21.781 32.9788 21.781C34.3553 21.781 35.4636 22.8881 35.4636 24.2631C35.4636 25.6381 34.3493 26.7453 32.9788 26.7453Z" fill="#0000FF"/>
</svg>

<svg xmlns="http://www.w3.org/2000/svg" width="50" height="44" fill="none"><path fill="#00F" d="M39.349 14.162A20.11 20.11 0 0 0 18.269.084C8.41.965.553 9.13.03 18.998c-.265 5.024 1.308 9.67 4.12 13.325v9.532a1.713 1.713 0 0 0 2.462 1.54l6.563-3.197h22.704c7.174 0 13.485-5.849 13.577-13.015.09-6.304-4.246-11.613-10.106-13.021M16.482 26.745a2.482 2.482 0 1 1 0-4.964 2.482 2.482 0 1 1 0 4.964m8.247 0a2.486 2.486 0 0 1-2.485-2.482 2.486 2.486 0 0 1 4.97 0 2.48 2.48 0 0 1-2.485 2.482m8.25 0a2.482 2.482 0 1 1 0-4.964 2.482 2.482 0 1 1 0 4.964"/></svg>
